X: 344
T: Rorchester Scottische
B: canberra pickers and fiddlers
B: tunes
M:4/4
L:1/8
R: reel
Q: 1/4=100
K:D
V:1 
|:de|"D" f2 e2 d2 B2|"D" ABAG FDde|"D" f2 e2 d2 B2|"A" A4A2 de|
"D" f2 e2 d2 B2|"D" ABAG FDFG|"D" ABAG "A" FDEF|"D" D4D2:|
|:FG|"D" ABAG FEDF|"G" EDEF G2 B2|"D" ABAG FE D2|"G" EDFD G2 FG|
"D" ABAG FEDF|"G" EDEF G2 B2|"D" ABAG "A" FDEF|"D" D4D2:|
% abcbook-tune_id 67a00232de44474ccea58d22
% abcbook-tune_composer_id 
% abcbook-link-0 https://syntithenai.github.io/numerella2025/music/rorchester scottische.mp3
% abcbook-boost 0
% abcbook-difficulty 0
% abcbook-tags old time tunes
% abcbook-tablature 
% abcbook-transpose 
% abcbook-tuning GDAE
% abcbook-lastupdated 1739287728090
% abcbook-src-url 
% abcbook-soundfonts 
% abcbook-repeats 1


